flaticon/sport/skateboard.svg

<svg xmlns="http://www.w3.org/2000/svg" width="32" height="32" viewBox="0 0 24 24">
    <path d="M 22.75 15.738281 L 22.570312 15.558594 L 22.847656 15.28125 C 23.058594 15.070312 23.175781 14.789062 23.175781 14.492188 C 23.175781 14.191406 23.058594 13.910156 22.847656 13.699219 L 20.265625 11.117188 C 19.84375 10.695312 19.105469 10.695312 18.683594 11.117188 L 18.40625 11.394531 L 12.605469 5.59375 L 12.882812 5.316406 C 13.316406 4.882812 13.316406 4.171875 12.882812 3.734375 L 10.300781 1.152344 C 9.878906 0.730469 9.140625 0.730469 8.71875 1.152344 L 8.441406 1.429688 L 8.261719 1.25 C 6.59375 -0.417969 3.882812 -0.417969 2.214844 1.25 L 1.25 2.214844 C -0.417969 3.882812 -0.417969 6.59375 1.25 8.261719 L 1.429688 8.441406 L 1.152344 8.71875 C 0.71875 9.152344 0.71875 9.863281 1.152344 10.300781 L 3.734375 12.882812 C 3.953125 13.097656 4.238281 13.207031 4.527344 13.207031 C 4.8125 13.207031 5.097656 13.097656 5.316406 12.882812 L 5.59375 12.605469 L 11.394531 18.40625 L 11.117188 18.683594 C 10.90625 18.894531 10.789062 19.175781 10.789062 19.472656 C 10.789062 19.773438 10.90625 20.054688 11.117188 20.265625 L 13.699219 22.847656 C 13.910156 23.058594 14.191406 23.175781 14.492188 23.175781 C 14.789062 23.175781 15.070312 23.058594 15.28125 22.847656 L 15.558594 22.570312 L 15.738281 22.75 C 16.570312 23.582031 17.667969 24 18.761719 24 C 19.855469 24 20.953125 23.582031 21.785156 22.75 L 22.75 21.785156 C 24.417969 20.117188 24.417969 17.40625 22.75 15.738281 Z M 19.289062 11.722656 C 19.386719 11.625 19.5625 11.625 19.660156 11.722656 L 22.242188 14.304688 C 22.292969 14.355469 22.320312 14.421875 22.320312 14.492188 C 22.320312 14.5625 22.292969 14.628906 22.242188 14.679688 L 21.964844 14.953125 L 19.011719 12 Z M 9.324219 1.757812 C 9.421875 1.660156 9.597656 1.660156 9.695312 1.757812 L 12.277344 4.339844 C 12.378906 4.441406 12.378906 4.609375 12.277344 4.714844 L 12 4.988281 L 9.046875 2.035156 Z M 4.988281 12 L 4.710938 12.277344 C 4.609375 12.378906 4.441406 12.378906 4.339844 12.277344 L 1.757812 9.695312 C 1.65625 9.59375 1.65625 9.425781 1.757812 9.324219 L 2.035156 9.046875 Z M 14.953125 21.964844 L 14.679688 22.242188 C 14.578125 22.34375 14.402344 22.339844 14.304688 22.242188 L 11.722656 19.660156 C 11.671875 19.613281 11.644531 19.546875 11.644531 19.472656 C 11.644531 19.402344 11.671875 19.335938 11.722656 19.289062 L 12 19.011719 L 12.347656 19.355469 Z M 22.144531 21.179688 L 21.179688 22.144531 C 19.847656 23.476562 17.675781 23.476562 16.34375 22.144531 L 1.855469 7.65625 C 0.523438 6.324219 0.523438 4.152344 1.855469 2.820312 L 2.820312 1.855469 C 3.488281 1.1875 4.363281 0.855469 5.238281 0.855469 C 6.113281 0.855469 6.988281 1.1875 7.65625 1.855469 L 17.800781 12 L 18.773438 12.96875 L 22.144531 16.34375 C 23.480469 17.675781 23.480469 19.847656 22.144531 21.179688 Z M 22.144531 21.179688"/>
    <path d="M5.027344 5.949219C5.027344 6.226562 4.804688 6.453125 4.527344 6.453125 4.246094 6.453125 4.023438 6.226562 4.023438 5.949219 4.023438 5.671875 4.246094 5.445312 4.527344 5.445312 4.804688 5.445312 5.027344 5.671875 5.027344 5.949219zM6.453125 4.527344C6.453125 4.804688 6.226562 5.03125 5.949219 5.03125 5.671875 5.03125 5.445312 4.804688 5.445312 4.527344 5.445312 4.25 5.671875 4.023438 5.949219 4.023438 6.226562 4.023438 6.453125 4.25 6.453125 4.527344zM6.453125 7.375C6.453125 7.652344 6.226562 7.875 5.949219 7.875 5.671875 7.875 5.445312 7.652344 5.445312 7.375 5.445312 7.09375 5.671875 6.871094 5.949219 6.871094 6.226562 6.871094 6.453125 7.09375 6.453125 7.375zM7.875 5.949219C7.875 6.226562 7.652344 6.453125 7.375 6.453125 7.09375 6.453125 6.871094 6.226562 6.871094 5.949219 6.871094 5.671875 7.09375 5.445312 7.375 5.445312 7.652344 5.445312 7.875 5.671875 7.875 5.949219zM17.484375 18.40625C17.484375 18.683594 17.261719 18.910156 16.984375 18.910156 16.703125 18.910156 16.480469 18.683594 16.480469 18.40625 16.480469 18.128906 16.703125 17.902344 16.984375 17.902344 17.261719 17.902344 17.484375 18.128906 17.484375 18.40625zM18.910156 16.984375C18.910156 17.261719 18.683594 17.484375 18.40625 17.484375 18.128906 17.484375 17.902344 17.261719 17.902344 16.984375 17.902344 16.703125 18.128906 16.480469 18.40625 16.480469 18.683594 16.480469 18.910156 16.703125 18.910156 16.984375zM18.910156 19.828125C18.910156 20.109375 18.683594 20.332031 18.40625 20.332031 18.128906 20.332031 17.902344 20.109375 17.902344 19.828125 17.902344 19.550781 18.128906 19.328125 18.40625 19.328125 18.683594 19.328125 18.910156 19.550781 18.910156 19.828125zM20.332031 18.40625C20.332031 18.683594 20.109375 18.910156 19.832031 18.910156 19.550781 18.910156 19.328125 18.683594 19.328125 18.40625 19.328125 18.128906 19.550781 17.902344 19.832031 17.902344 20.109375 17.902344 20.332031 18.128906 20.332031 18.40625zM20.332031 18.40625"/>
</svg>

<svg xmlns="http://www.w3.org/2000/svg" width="32" height="32" viewBox="0 0 24 24">
    <path d="M22.75 15.738l-.18-.18.278-.277a1.114 1.114 0 0 0 0-1.582l-2.582-2.582a1.147 1.147 0 0 0-1.582 0l-.278.278-5.8-5.801.277-.278a1.125 1.125 0 0 0 0-1.582L10.3 1.152a1.147 1.147 0 0 0-1.582 0l-.278.278-.18-.18a4.28 4.28 0 0 0-6.046 0l-.965.965a4.28 4.28 0 0 0 0 6.047l.18.18-.278.277a1.125 1.125 0 0 0 0 1.582l2.582 2.582a1.127 1.127 0 0 0 1.582 0l.278-.278 5.8 5.801-.277.278a1.114 1.114 0 0 0 0 1.582l2.582 2.582a1.114 1.114 0 0 0 1.582 0l.278-.278.18.18A4.268 4.268 0 0 0 18.761 24a4.268 4.268 0 0 0 3.023-1.25l.965-.965a4.28 4.28 0 0 0 0-6.047zm-3.46-4.015a.272.272 0 0 1 .37 0l2.582 2.582a.263.263 0 0 1 0 .375l-.277.273L19.012 12zM9.323 1.758a.272.272 0 0 1 .371 0l2.582 2.582a.269.269 0 0 1 0 .375L12 4.988 9.047 2.035zM4.988 12l-.277.277a.264.264 0 0 1-.371 0L1.758 9.695a.264.264 0 0 1 0-.37l.277-.278zm9.965 9.965l-.273.277a.273.273 0 0 1-.375 0l-2.582-2.582a.25.25 0 0 1-.078-.187c0-.07.027-.137.078-.184l.277-.277.348.343zm7.192-.785l-.965.965a3.426 3.426 0 0 1-4.836 0L1.855 7.656a3.426 3.426 0 0 1 0-4.836l.965-.965c.668-.667 1.543-1 2.418-1 .875 0 1.75.333 2.418 1L17.801 12l.972.969 3.372 3.375a3.419 3.419 0 0 1 0 4.836zm0 0"/>
    <path d="M5.027 5.95a.502.502 0 1 1-1.004 0 .503.503 0 1 1 1.004 0zm0 0M6.453 4.527a.505.505 0 0 1-1.008 0 .505.505 0 0 1 1.008 0zm0 0M6.453 7.375c0 .277-.226.5-.504.5a.502.502 0 1 1 0-1.004c.278 0 .504.223.504.504zm0 0M7.875 5.95a.502.502 0 1 1-1.004 0 .503.503 0 1 1 1.004 0zm0 0M17.484 18.406a.502.502 0 1 1-1.004 0 .503.503 0 1 1 1.004 0zm0 0M18.91 16.984c0 .278-.226.5-.504.5a.502.502 0 1 1 0-1.004c.278 0 .504.223.504.504zm0 0M18.91 19.828a.503.503 0 0 1-.504.504.503.503 0 1 1 0-1.004c.278 0 .504.223.504.5zm0 0M20.332 18.406a.502.502 0 1 1-1.004 0 .503.503 0 1 1 1.004 0zm0 0"/>
</svg>
